X: 4834
T: Boys On The Hilltop, The
R: reel
M: 4/4
K: Gdorian
D|G3 B A2 GF|DF FE F2 GG/F/|DG G2 AFAc|dfcA AGGF|
G3 B A2 GF|DF FE F2 GA|BGGG A3 B|cAFG AGGF||
G2 (3ABc (3def cA|FA A2 cdef|{f}g2 dc dfcA|FAcA AG G2|
{f}g2 dc dfcA|FA A2 cdef|gefd ecde|fa ge fdcA||

